X: 1
T: Gwyngalch Morgannwg
M: 6/8
L: 1/8
R: jig
K: Dmaj
|:d2e fed|dcB AGF|B2B Bcd|
AFD DEF|GFG BAG|FGE D3:|
|:EEE ABc|def ecA|EEE ABc|
def edc|Bdd Add|Gdd Fdd|
BBB Bcd|AFD DEF|GFG BAG|FGE D3:|
